third_party/noto/noto_2/emoji_u1f383.svg

<svg enable-background="new 0 0 128 128" viewBox="0 0 128 128" xmlns="http://www.w3.org/2000/svg"><path d="m68.52 24.26h-8.55c-0.11-7.47-4.1-10.17-6.67-12.91-3.52-3.77-0.82-7.22 4.49-7.22h0.24c1.22 0 2.41 0.32 3.37 0.86 10.03 5.62 7.12 19.27 7.12 19.27z" fill="#2E7D32"/><g opacity=".2"><path d="m58.03 7.13c0.67 0 1.35 0.17 1.91 0.48 3.25 1.82 5.2 4.96 5.8 9.35 0.22 1.62 0.22 3.13 0.14 4.3h-3.14c-0.86-5.63-3.85-8.59-6.12-10.83-0.4-0.4-0.78-0.77-1.11-1.13-0.69-0.74-0.79-1.21-0.78-1.28 0.1-0.23 1.04-0.89 3.08-0.89h0.22m0-3h-0.24c-5.31 0-8.01 3.45-4.49 7.22 2.57 2.75 6.56 5.44 6.67 12.91h8.55s2.91-13.65-7.13-19.27c-0.96-0.54-2.14-0.86-3.36-0.86z" fill="#424242"/></g><radialGradient id="c" cx="33.729" cy="38.875" r="43.882" gradientUnits="userSpaceOnUse"><stop stop-color="#FF9800" offset=".2927"/><stop stop-color="#F57C00" offset=".8904"/></radialGradient><ellipse cx="38.06" cy="71.88" rx="34.06" ry="51.88" fill="url(#c)"/><g opacity=".2"><path d="M38.06,23c8.05,0,15.72,4.92,21.58,13.84c6.12,9.31,9.48,21.76,9.48,35.03s-3.37,25.72-9.48,35.03 c-5.86,8.93-13.52,13.84-21.58,13.84s-15.72-4.92-21.58-13.84C10.37,97.6,7,85.15,7,71.88s3.37-25.72,9.48-35.03 C22.34,27.92,30.01,23,38.06,23 M38.06,20C19.25,20,4,43.23,4,71.88s15.25,51.88,34.06,51.88s34.06-23.23,34.06-51.88 S56.87,20,38.06,20L38.06,20z" fill="#424242"/></g><radialGradient id="b" cx="95.062" cy="39.875" r="43.882" gradientUnits="userSpaceOnUse"><stop stop-color="#FF9800" offset=".2927"/><stop stop-color="#F57C00" offset=".8904"/></radialGradient><ellipse cx="90.06" cy="71.88" rx="34.06" ry="51.88" fill="url(#b)"/><g opacity=".2"><path d="m90.06 23c8.05 0 15.72 4.92 21.58 13.84 6.12 9.31 9.48 21.76 9.48 35.03s-3.37 25.72-9.48 35.03c-5.86 8.93-13.52 13.84-21.58 13.84s-15.72-4.92-21.58-13.84c-6.11-9.3-9.48-21.75-9.48-35.02s3.37-25.72 9.48-35.03c5.86-8.93 13.53-13.85 21.58-13.85m0-3c-18.81 0-34.06 23.23-34.06 51.88s15.25 51.88 34.06 51.88 34.06-23.23 34.06-51.88-15.25-51.88-34.06-51.88z" fill="#424242"/></g><radialGradient id="a" cx="65.125" cy="38.875" r="44.699" gradientTransform="matrix(1 0 0 1.3395 0 -13.198)" gradientUnits="userSpaceOnUse"><stop stop-color="#FF9800" offset=".2927"/><stop stop-color="#F57C00" offset=".8904"/></radialGradient><ellipse cx="64.12" cy="71.88" rx="36.12" ry="51.88" fill="url(#a)"/><path d="m71.09 74.77h-13.6c-0.93 0-1.54-0.89-1.12-1.65l6.18-11.22c0.78-1.42 2.47-1.43 3.27-0.03l6.38 11.23c0.44 0.76-0.17 1.67-1.11 1.67z"/><g opacity=".2"><path d="m64.12 23c18.27 0 33.12 21.93 33.12 48.88s-14.86 48.88-33.12 48.88-33.12-21.94-33.12-48.88 14.86-48.88 33.12-48.88m0-3c-19.95 0-36.12 23.23-36.12 51.88s16.17 51.88 36.12 51.88 36.12-23.23 36.12-51.88-16.16-51.88-36.12-51.88z" fill="#424242"/></g><path d="m47.34 63.7h-16.29c-1.97 0-3.25-1.75-2.37-3.24l8.01-13.52c0.97-1.64 3.73-1.65 4.73-0.03l8.28 13.52c0.91 1.5-0.37 3.27-2.36 3.27z"/><path d="m98.01 63.7h-16.29c-1.97 0-3.25-1.75-2.37-3.24l8.01-13.52c0.97-1.64 3.73-1.65 4.73-0.03l8.28 13.52c0.91 1.5-0.37 3.27-2.36 3.27z"/><path d="m62.58 70.42c-0.23 0-0.39-0.22-0.28-0.41l1.55-2.81c0.2-0.36 0.62-0.36 0.82-0.01l1.6 2.82c0.11 0.19-0.04 0.42-0.28 0.42" fill="#FFB74D" opacity=".3"/><path d="m90 100.05v-6.61h-6.88v10.44c-5.28 2.34-11.14 3.67-17.2 3.67-2.42 0-4.85-0.11-7.26-0.36v-10.12h-9.22v8.44c-12.44-3.4-23.13-11.56-27.36-28.09 3.52 0.65 6.73 1.23 9.73 1.76v8.32l10.63 3v-9.53c9.15 1.43 16.01 2.09 23.02 1.98v8.11h8.71v-8.62c8.12-0.79 17.6-2.46 31.53-5.03-1.72 9-7.6 17.1-15.7 22.64z"/></svg>

<svg width="128" height="128" style="enable-background:new 0 0 128 128;" xmlns="http://www.w3.org/2000/svg" xmlns:xlink="http://www.w3.org/1999/xlink">
  <g id="图层_3">
    <path d="M68.52,24.26l-8.55,0c-0.11-7.47-4.1-10.17-6.67-12.91c-3.52-3.77-0.82-7.22,4.49-7.22l0.24,0 c1.22,0,2.41,0.32,3.37,0.86C71.43,10.61,68.52,24.26,68.52,24.26z" style="fill:#2E7D32;"/>
    <g style="opacity:0.2;">
      <path d="M58.03,7.13c0.67,0,1.35,0.17,1.91,0.48c3.25,1.82,5.2,4.96,5.8,9.35c0.22,1.62,0.22,3.13,0.14,4.3 l-3.14,0c-0.86-5.63-3.85-8.59-6.12-10.83c-0.4-0.4-0.78-0.77-1.11-1.13c-0.69-0.74-0.79-1.21-0.78-1.28 c0.1-0.23,1.04-0.89,3.08-0.89H58.03 M58.03,4.13h-0.24c-5.31,0-8.01,3.45-4.49,7.22c2.57,2.75,6.56,5.44,6.67,12.91l8.55,0 c0,0,2.91-13.65-7.13-19.27C60.43,4.45,59.25,4.13,58.03,4.13L58.03,4.13z" style="fill:#424242;"/>
    </g>
    <radialGradient id="SVGID_1_" cx="33.7292" cy="38.875" gradientUnits="userSpaceOnUse" r="43.8821">
      <stop offset="0.2927" style="stop-color:#FF9800"/>
      <stop offset="0.8904" style="stop-color:#F57C00"/>
    </radialGradient>
    <ellipse cx="38.06" cy="71.88" rx="34.06" ry="51.88" style="fill:url(#SVGID_1_);"/>
    <g style="opacity:0.2;">
      <path d="M38.06,23c8.05,0,15.72,4.92,21.58,13.84c6.12,9.31,9.48,21.76,9.48,35.03s-3.37,25.72-9.48,35.03 c-5.86,8.93-13.52,13.84-21.58,13.84s-15.72-4.92-21.58-13.84C10.37,97.6,7,85.15,7,71.88s3.37-25.72,9.48-35.03 C22.34,27.92,30.01,23,38.06,23 M38.06,20C19.25,20,4,43.23,4,71.88s15.25,51.88,34.06,51.88s34.06-23.23,34.06-51.88 S56.87,20,38.06,20L38.06,20z" style="fill:#424242;"/>
    </g>
    <radialGradient id="SVGID_3_" cx="95.0625" cy="39.875" gradientUnits="userSpaceOnUse" r="43.8821">
      <stop offset="0.2927" style="stop-color:#FF9800"/>
      <stop offset="0.8904" style="stop-color:#F57C00"/>
    </radialGradient>
    <ellipse cx="90.06" cy="71.88" rx="34.06" ry="51.88" style="fill:url(#SVGID_3_);"/>
    <g style="opacity:0.2;">
      <path d="M90.06,23c8.05,0,15.72,4.92,21.58,13.84c6.12,9.31,9.48,21.76,9.48,35.03s-3.37,25.72-9.48,35.03 c-5.86,8.93-13.52,13.84-21.58,13.84s-15.72-4.92-21.58-13.84C62.37,97.6,59,85.15,59,71.88s3.37-25.72,9.48-35.03 C74.34,27.92,82.01,23,90.06,23 M90.06,20C71.25,20,56,43.23,56,71.88s15.25,51.88,34.06,51.88s34.06-23.23,34.06-51.88 S108.87,20,90.06,20L90.06,20z" style="fill:#424242;"/>
    </g>
    <radialGradient id="SVGID_4_" cx="65.125" cy="38.875" gradientTransform="matrix(1 0 0 1.3395 0 -13.1985)" gradientUnits="userSpaceOnUse" r="44.6992">
      <stop offset="0.2927" style="stop-color:#FF9800"/>
      <stop offset="0.8904" style="stop-color:#F57C00"/>
    </radialGradient>
    <ellipse cx="64.12" cy="71.88" rx="36.12" ry="51.88" style="fill:url(#SVGID_4_);"/>
    <path d="M71.09,74.77H57.49c-0.93,0-1.54-0.89-1.12-1.65l6.18-11.22c0.78-1.42,2.47-1.43,3.27-0.03L72.2,73.1 C72.64,73.86,72.03,74.77,71.09,74.77z"/>
    <g style="opacity:0.2;">
      <path d="M64.12,23c18.27,0,33.12,21.93,33.12,48.88s-14.86,48.88-33.12,48.88S31,98.82,31,71.88 S45.86,23,64.12,23 M64.12,20C44.17,20,28,43.23,28,71.88s16.17,51.88,36.12,51.88c19.95,0,36.12-23.23,36.12-51.88 S84.08,20,64.12,20L64.12,20z" style="fill:#424242;"/>
    </g>
    <path d="M47.34,63.7H31.05c-1.97,0-3.25-1.75-2.37-3.24l8.01-13.52c0.97-1.64,3.73-1.65,4.73-0.03l8.28,13.52 C50.61,61.93,49.33,63.7,47.34,63.7z"/>
    <path d="M98.01,63.7H81.72c-1.97,0-3.25-1.75-2.37-3.24l8.01-13.52c0.97-1.64,3.73-1.65,4.73-0.03l8.28,13.52 C101.28,61.93,100,63.7,98.01,63.7z"/>
    <path d="M62.58,70.42c-0.23,0-0.39-0.22-0.28-0.41l1.55-2.81c0.2-0.36,0.62-0.36,0.82-0.01 l1.6,2.82c0.11,0.19-0.04,0.42-0.28,0.42" style="opacity:0.3;fill:#FFB74D;"/>
    <path d="M90,100.05v-6.61h-6.88v10.44c-5.28,2.34-11.14,3.67-17.2,3.67c-2.42,0-4.85-0.11-7.26-0.36V97.07h-9.22v8.44 c-12.44-3.4-23.13-11.56-27.36-28.09c3.52,0.65,6.73,1.23,9.73,1.76v8.32l10.63,3v-9.53c9.15,1.43,16.01,2.09,23.02,1.98v8.11 h8.71v-8.62c8.12-0.79,17.6-2.46,31.53-5.03C103.98,86.41,98.1,94.51,90,100.05z"/>
  </g>
  <g id="Layer_2_x5F_复制" style="display:none;">
    <g style="display:inline;opacity:0.3;">
      <g style="opacity:0.6;">
        <circle cx="64" cy="64" r="28" style="opacity:0.61;fill:none;stroke:#000000;stroke-width:0.2625;stroke-miterlimit:10;"/>
        <line style="opacity:0.61;fill:none;stroke:#000000;stroke-width:0.25;stroke-miterlimit:10;" x1="84" x2="84" y1="0" y2="128"/>
        <line style="opacity:0.61;fill:none;stroke:#000000;stroke-width:0.25;stroke-miterlimit:10;" x1="44" x2="44" y1="0" y2="128"/>
        <line style="opacity:0.61;fill:none;stroke:#000000;stroke-width:0.25;stroke-miterlimit:10;" x1="64" x2="64" y1="0" y2="128"/>
        <line style="opacity:0.61;fill:none;stroke:#000000;stroke-width:0.25;stroke-miterlimit:10;" x1="128" x2="0" y1="64" y2="64"/>
        <line style="opacity:0.61;fill:none;stroke:#000000;stroke-width:0.25;stroke-miterlimit:10;" x1="128" x2="0" y1="44" y2="44"/>
        <line style="opacity:0.61;fill:none;stroke:#000000;stroke-width:0.25;stroke-miterlimit:10;" x1="128" x2="0" y1="83.75" y2="83.75"/>
        <line style="opacity:0.61;fill:none;stroke:#000000;stroke-width:0.25;stroke-miterlimit:10;" x1="128" x2="0" y1="128" y2="0"/>
        <line style="opacity:0.61;fill:none;stroke:#000000;stroke-width:0.25;stroke-miterlimit:10;" x1="0" x2="128" y1="128" y2="0"/>
        <g style="opacity:0.61;">
          <path d="M64,4.26c32.94,0,59.74,26.8,59.74,59.74S96.94,123.74,64,123.74S4.26,96.94,4.26,64S31.06,4.26,64,4.26 M64,4 C30.86,4,4,30.86,4,64c0,33.14,26.86,60,60,60c33.14,0,60-26.86,60-60C124,30.86,97.14,4,64,4L64,4z"/>
        </g>
        <path d="M107.97,115.97H20.03 c-4.42,0-8.03-3.61-8.03-8.03V20.03c0-4.42,3.61-8.03,8.03-8.03h87.94c4.42,0,8.03,3.61,8.03,8.03v87.91 C116,112.36,112.39,115.97,107.97,115.97z" style="opacity:0.61;fill:none;stroke:#000000;stroke-width:0.2578;stroke-miterlimit:10;"/>
        <path d="M99.75,124H28 c-4.4,0-8-3.6-8-8V12c0-4.4,3.6-8,8-8h71.75c4.4,0,8,3.6,8,8v104C107.75,120.4,104.15,124,99.75,124z" style="opacity:0.61;fill:none;stroke:#000000;stroke-width:0.2567;stroke-miterlimit:10;"/>
        <path d="M113.77,108H14.23 C8.6,108,4,103.4,4,97.77V30.28c0-5.63,4.6-10.23,10.23-10.23h99.54c5.63,0,10.23,4.6,10.23,10.23v67.48 C124,103.4,119.4,108,113.77,108z" style="opacity:0.61;fill:none;stroke:#000000;stroke-width:0.2627;stroke-miterlimit:10;"/>
      </g>
      <g>
        <g style="opacity:0.2;">
          <defs>
            <rect id="SVGID_2_" height="128" style="opacity:0.2;" width="128"/>
          </defs>
          <clipPath id="SVGID_5_">
            <use style="overflow:visible;" xlink:href="#SVGID_2_"/>
          </clipPath>
          <g style="clip-path:url(#SVGID_5_);">
            <g>
              <line style="fill:none;stroke:#000000;stroke-width:0.25;stroke-miterlimit:10;" x1="-28" x2="-28" y1="160" y2="-32"/>
              <line style="fill:none;stroke:#000000;stroke-width:0.25;stroke-miterlimit:10;" x1="-24" x2="-24" y1="160" y2="-32"/>
              <line style="fill:none;stroke:#000000;stroke-width:0.25;stroke-miterlimit:10;" x1="-20" x2="-20" y1="160" y2="-32"/>
              <line style="fill:none;stroke:#000000;stroke-width:0.25;stroke-miterlimit:10;" x1="-16" x2="-16" y1="160" y2="-32"/>
              <line style="fill:none;stroke:#000000;stroke-width:0.25;stroke-miterlimit:10;" x1="-12" x2="-12" y1="160" y2="-32"/>
              <line style="fill:none;stroke:#000000;stroke-width:0.25;stroke-miterlimit:10;" x1="-8" x2="-8" y1="160" y2="-32"/>
              <line style="fill:none;stroke:#000000;stroke-width:0.25;stroke-miterlimit:10;" x1="-4" x2="-4" y1="160" y2="-32"/>
              <line style="fill:none;stroke:#000000;stroke-width:0.25;stroke-miterlimit:10;" x1="0" x2="0" y1="160" y2="-32"/>
              <line style="fill:none;stroke:#000000;stroke-width:0.25;stroke-miterlimit:10;" x1="4" x2="4" y1="160" y2="-32"/>
              <line style="fill:none;stroke:#000000;stroke-width:0.25;stroke-miterlimit:10;" x1="8" x2="8" y1="160" y2="-32"/>
              <line style="fill:none;stroke:#000000;stroke-width:0.25;stroke-miterlimit:10;" x1="12" x2="12" y1="160" y2="-32"/>
              <line style="fill:none;stroke:#000000;stroke-width:0.25;stroke-miterlimit:10;" x1="16" x2="16" y1="160" y2="-32"/>
              <line style="fill:none;stroke:#000000;stroke-width:0.25;stroke-miterlimit:10;" x1="20" x2="20" y1="160" y2="-32"/>
              <line style="fill:none;stroke:#000000;stroke-width:0.25;stroke-miterlimit:10;" x1="24" x2="24" y1="160" y2="-32"/>
              <line style="fill:none;stroke:#000000;stroke-width:0.25;stroke-miterlimit:10;" x1="28" x2="28" y1="160" y2="-32"/>
              <line style="fill:none;stroke:#000000;stroke-width:0.25;stroke-miterlimit:10;" x1="32" x2="32" y1="160" y2="-32"/>
              <line style="fill:none;stroke:#000000;stroke-width:0.25;stroke-miterlimit:10;" x1="36" x2="36" y1="160" y2="-32"/>
              <line style="fill:none;stroke:#000000;stroke-width:0.25;stroke-miterlimit:10;" x1="40" x2="40" y1="160" y2="-32"/>
              <line style="fill:none;stroke:#000000;stroke-width:0.25;stroke-miterlimit:10;" x1="44" x2="44" y1="160" y2="-32"/>
              <line style="fill:none;stroke:#000000;stroke-width:0.25;stroke-miterlimit:10;" x1="48" x2="48" y1="160" y2="-32"/>
              <line style="fill:none;stroke:#000000;stroke-width:0.25;stroke-miterlimit:10;" x1="52" x2="52" y1="160" y2="-32"/>
              <line style="fill:none;stroke:#000000;stroke-width:0.25;stroke-miterlimit:10;" x1="56" x2="56" y1="160" y2="-32"/>
              <line style="fill:none;stroke:#000000;stroke-width:0.25;stroke-miterlimit:10;" x1="60" x2="60" y1="160" y2="-32"/>
              <line style="fill:none;stroke:#000000;stroke-width:0.25;stroke-miterlimit:10;" x1="64" x2="64" y1="160" y2="-32"/>
              <line style="fill:none;stroke:#000000;stroke-width:0.25;stroke-miterlimit:10;" x1="68" x2="68" y1="160" y2="-32"/>
              <line style="fill:none;stroke:#000000;stroke-width:0.25;stroke-miterlimit:10;" x1="72" x2="72" y1="160" y2="-32"/>
              <line style="fill:none;stroke:#000000;stroke-width:0.25;stroke-miterlimit:10;" x1="76" x2="76" y1="160" y2="-32"/>
              <line style="fill:none;stroke:#000000;stroke-width:0.25;stroke-miterlimit:10;" x1="80" x2="80" y1="160" y2="-32"/>
              <line style="fill:none;stroke:#000000;stroke-width:0.25;stroke-miterlimit:10;" x1="84" x2="84" y1="160" y2="-32"/>
              <line style="fill:none;stroke:#000000;stroke-width:0.25;stroke-miterlimit:10;" x1="88" x2="88" y1="160" y2="-32"/>
              <line style="fill:none;stroke:#000000;stroke-width:0.25;stroke-miterlimit:10;" x1="92" x2="92" y1="160" y2="-32"/>
              <line style="fill:none;stroke:#000000;stroke-width:0.25;stroke-miterlimit:10;" x1="96" x2="96" y1="160" y2="-32"/>
              <line style="fill:none;stroke:#000000;stroke-width:0.25;stroke-miterlimit:10;" x1="100" x2="100" y1="160" y2="-32"/>
              <line style="fill:none;stroke:#000000;stroke-width:0.25;stroke-miterlimit:10;" x1="104" x2="104" y1="160" y2="-32"/>
              <line style="fill:none;stroke:#000000;stroke-width:0.25;stroke-miterlimit:10;" x1="108" x2="108" y1="160" y2="-32"/>
              <line style="fill:none;stroke:#000000;stroke-width:0.25;stroke-miterlimit:10;" x1="112" x2="112" y1="160" y2="-32"/>
              <line style="fill:none;stroke:#000000;stroke-width:0.25;stroke-miterlimit:10;" x1="116" x2="116" y1="160" y2="-32"/>
              <line style="fill:none;stroke:#000000;stroke-width:0.25;stroke-miterlimit:10;" x1="120" x2="120" y1="160" y2="-32"/>
              <line style="fill:none;stroke:#000000;stroke-width:0.25;stroke-miterlimit:10;" x1="124" x2="124" y1="160" y2="-32"/>
              <line style="fill:none;stroke:#000000;stroke-width:0.25;stroke-miterlimit:10;" x1="128" x2="128" y1="160" y2="-32"/>
              <line style="fill:none;stroke:#000000;stroke-width:0.25;stroke-miterlimit:10;" x1="132" x2="132" y1="160" y2="-32"/>
              <line style="fill:none;stroke:#000000;stroke-width:0.25;stroke-miterlimit:10;" x1="136" x2="136" y1="160" y2="-32"/>
              <line style="fill:none;stroke:#000000;stroke-width:0.25;stroke-miterlimit:10;" x1="137" x2="137" y1="166.05" y2="-25.95"/>
              <line style="fill:none;stroke:#000000;stroke-width:0.25;stroke-miterlimit:10;" x1="144" x2="144" y1="160" y2="-32"/>
              <line style="fill:none;stroke:#000000;stroke-width:0.25;stroke-miterlimit:10;" x1="148" x2="148" y1="160" y2="-32"/>
              <line style="fill:none;stroke:#000000;stroke-width:0.25;stroke-miterlimit:10;" x1="152" x2="152" y1="160" y2="-32"/>
              <line style="fill:none;stroke:#000000;stroke-width:0.25;stroke-miterlimit:10;" x1="156" x2="156" y1="160" y2="-32"/>
            </g>
            <g>
              <line style="fill:none;stroke:#000000;stroke-width:0.25;stroke-miterlimit:10;" x1="-32" x2="160" y1="-28" y2="-28"/>
              <line style="fill:none;stroke:#000000;stroke-width:0.25;stroke-miterlimit:10;" x1="-32" x2="160" y1="-24" y2="-24"/>
              <line style="fill:none;stroke:#000000;stroke-width:0.25;stroke-miterlimit:10;" x1="-32" x2="160" y1="-20" y2="-20"/>
              <line style="fill:none;stroke:#000000;stroke-width:0.25;stroke-miterlimit:10;" x1="-32" x2="160" y1="-16" y2="-16"/>
              <line style="fill:none;stroke:#000000;stroke-width:0.25;stroke-miterlimit:10;" x1="-32" x2="160" y1="-12" y2="-12"/>
              <line style="fill:none;stroke:#000000;stroke-width:0.25;stroke-miterlimit:10;" x1="-32" x2="160" y1="-8" y2="-8"/>
              <line style="fill:none;stroke:#000000;stroke-width:0.25;stroke-miterlimit:10;" x1="-32" x2="160" y1="-4" y2="-4"/>
              <line style="fill:none;stroke:#000000;stroke-width:0.25;stroke-miterlimit:10;" x1="-32" x2="160" y1="0" y2="0"/>
              <line style="fill:none;stroke:#000000;stroke-width:0.25;stroke-miterlimit:10;" x1="-32" x2="160" y1="4" y2="4"/>
              <line style="fill:none;stroke:#000000;stroke-width:0.25;stroke-miterlimit:10;" x1="-32" x2="160" y1="8" y2="8"/>
              <line style="fill:none;stroke:#000000;stroke-width:0.25;stroke-miterlimit:10;" x1="-32" x2="160" y1="12" y2="12"/>
              <line style="fill:none;stroke:#000000;stroke-width:0.25;stroke-miterlimit:10;" x1="-32" x2="160" y1="16" y2="16"/>
              <line style="fill:none;stroke:#000000;stroke-width:0.25;stroke-miterlimit:10;" x1="-32" x2="160" y1="20" y2="20"/>
              <line style="fill:none;stroke:#000000;stroke-width:0.25;stroke-miterlimit:10;" x1="-32" x2="160" y1="24" y2="24"/>
              <line style="fill:none;stroke:#000000;stroke-width:0.25;stroke-miterlimit:10;" x1="-32" x2="160" y1="28" y2="28"/>
              <line style="fill:none;stroke:#000000;stroke-width:0.25;stroke-miterlimit:10;" x1="-32" x2="160" y1="32" y2="32"/>
              <line style="fill:none;stroke:#000000;stroke-width:0.25;stroke-miterlimit:10;" x1="-32" x2="160" y1="36" y2="36"/>
              <line style="fill:none;stroke:#000000;stroke-width:0.25;stroke-miterlimit:10;" x1="-32" x2="160" y1="40" y2="40"/>
              <line style="fill:none;stroke:#000000;stroke-width:0.25;stroke-miterlimit:10;" x1="-32" x2="160" y1="44" y2="44"/>
              <line style="fill:none;stroke:#000000;stroke-width:0.25;stroke-miterlimit:10;" x1="-32" x2="160" y1="48" y2="48"/>
              <line style="fill:none;stroke:#000000;stroke-width:0.25;stroke-miterlimit:10;" x1="-32" x2="160" y1="52" y2="52"/>
              <line style="fill:none;stroke:#000000;stroke-width:0.25;stroke-miterlimit:10;" x1="-32" x2="160" y1="56" y2="56"/>
              <line style="fill:none;stroke:#000000;stroke-width:0.25;stroke-miterlimit:10;" x1="-32" x2="160" y1="60" y2="60"/>
              <line style="fill:none;stroke:#000000;stroke-width:0.25;stroke-miterlimit:10;" x1="-32" x2="160" y1="64" y2="64"/>
              <line style="fill:none;stroke:#000000;stroke-width:0.25;stroke-miterlimit:10;" x1="-32" x2="160" y1="68" y2="68"/>
              <line style="fill:none;stroke:#000000;stroke-width:0.25;stroke-miterlimit:10;" x1="-32" x2="160" y1="72" y2="72"/>
              <line style="fill:none;stroke:#000000;stroke-width:0.25;stroke-miterlimit:10;" x1="-32" x2="160" y1="76" y2="76"/>
              <line style="fill:none;stroke:#000000;stroke-width:0.25;stroke-miterlimit:10;" x1="-32" x2="160" y1="80" y2="80"/>
              <line style="fill:none;stroke:#000000;stroke-width:0.25;stroke-miterlimit:10;" x1="-32" x2="160" y1="84" y2="84"/>
              <line style="fill:none;stroke:#000000;stroke-width:0.25;stroke-miterlimit:10;" x1="-32" x2="160" y1="88" y2="88"/>
              <line style="fill:none;stroke:#000000;stroke-width:0.25;stroke-miterlimit:10;" x1="-32" x2="160" y1="92" y2="92"/>
              <line style="fill:none;stroke:#000000;stroke-width:0.25;stroke-miterlimit:10;" x1="-32" x2="160" y1="96" y2="96"/>
              <line style="fill:none;stroke:#000000;stroke-width:0.25;stroke-miterlimit:10;" x1="-32" x2="160" y1="100" y2="100"/>
              <line style="fill:none;stroke:#000000;stroke-width:0.25;stroke-miterlimit:10;" x1="-32" x2="160" y1="104" y2="104"/>
              <line style="fill:none;stroke:#000000;stroke-width:0.25;stroke-miterlimit:10;" x1="-32" x2="160" y1="108" y2="108"/>
              <line style="fill:none;stroke:#000000;stroke-width:0.25;stroke-miterlimit:10;" x1="-32" x2="160" y1="112" y2="112"/>
              <line style="fill:none;stroke:#000000;stroke-width:0.25;stroke-miterlimit:10;" x1="-32" x2="160" y1="116" y2="116"/>
              <line style="fill:none;stroke:#000000;stroke-width:0.25;stroke-miterlimit:10;" x1="-32" x2="160" y1="120" y2="120"/>
              <line style="fill:none;stroke:#000000;stroke-width:0.25;stroke-miterlimit:10;" x1="-32" x2="160" y1="124" y2="124"/>
              <line style="fill:none;stroke:#000000;stroke-width:0.25;stroke-miterlimit:10;" x1="-32" x2="160" y1="128" y2="128"/>
              <line style="fill:none;stroke:#000000;stroke-width:0.25;stroke-miterlimit:10;" x1="-32" x2="160" y1="132" y2="132"/>
              <line style="fill:none;stroke:#000000;stroke-width:0.25;stroke-miterlimit:10;" x1="-32" x2="160" y1="136" y2="136"/>
              <line style="fill:none;stroke:#000000;stroke-width:0.25;stroke-miterlimit:10;" x1="-32" x2="160" y1="140" y2="140"/>
              <line style="fill:none;stroke:#000000;stroke-width:0.25;stroke-miterlimit:10;" x1="-32" x2="160" y1="144" y2="144"/>
              <line style="fill:none;stroke:#000000;stroke-width:0.25;stroke-miterlimit:10;" x1="-32" x2="160" y1="148" y2="148"/>
              <line style="fill:none;stroke:#000000;stroke-width:0.25;stroke-miterlimit:10;" x1="-32" x2="160" y1="152" y2="152"/>
              <line style="fill:none;stroke:#000000;stroke-width:0.25;stroke-miterlimit:10;" x1="-32" x2="160" y1="156" y2="156"/>
            </g>
            <path d="M159.75-31.75v191.5h-191.5v-191.5H159.75 M160-32H-32v192h192V-32L160-32z"/>
          </g>
        </g>
        <g>
          <rect height="128" style="opacity:0.3;fill:#F44336;" width="4"/>
          <rect height="128" style="opacity:0.3;fill:#F44336;" width="4" x="124"/>
          <rect height="120" style="opacity:0.3;fill:#F44336;" transform="matrix(-1.836970e-16 1 -1 -1.836970e-16 66 -62)" width="4" x="62" y="-58"/>
          <rect height="120" style="opacity:0.3;fill:#F44336;" transform="matrix(-1.836970e-16 1 -1 -1.836970e-16 190 62)" width="4" x="62" y="66"/>
        </g>
      </g>
    </g>
  </g>
</svg>
